svgs/sharp-regular/jar.svg

<svg xmlns="http://www.w3.org/2000/svg" viewBox="0 0 320 512"><!--! Font Awesome Pro 6.6.0 by @fontawesome - https://fontawesome.com License - https://fontawesome.com/license (Commercial License) Copyright 2024 Fonticons, Inc. --><path d="M32 0l0 48 256 0 0-48L32 0zM272 128l0 96L48 224l0-96 224 0zm0 240l0 96L48 464l0-96 224 0zM48 80L0 80l0 48L0 464l0 48 48 0 224 0 48 0 0-48 0-336 0-48-48 0L48 80z"/></svg>

<svg xmlns="http://www.w3.org/2000/svg" viewBox="0 0 320 512"><!--! Font Awesome Pro 6.4.2 by @fontawesome - https://fontawesome.com License - https://fontawesome.com/license (Commercial License) Copyright 2023 Fonticons, Inc. --><path d="M32 0V48H288V0H32zM272 128v96H48V128H272zm0 240v96H48V368H272zM48 80H0v48V464v48H48 272h48V464 128 80H272 48z"/></svg>
